public/images/icon-settings.svg

<svg width="16" height="17" viewBox="0 0 16 17" fill="none" xmlns="http://www.w3.org/2000/svg">
<path d="M4 3.7C4 3.48783 3.91571 3.28435 3.76569 3.13432C3.61566 2.98429 3.41217 2.9 3.2 2.9C2.98783 2.9 2.78434 2.98429 2.63432 3.13432C2.48429 3.28435 2.4 3.48783 2.4 3.7V9.5144C2.15679 9.65484 1.95483 9.85681 1.81441 10.1C1.67399 10.3433 1.60007 10.6192 1.60007 10.9C1.60007 11.1808 1.67399 11.4567 1.81441 11.7C1.95483 11.9432 2.15679 12.1452 2.4 12.2856V13.3C2.4 13.5122 2.48429 13.7157 2.63432 13.8657C2.78434 14.0157 2.98783 14.1 3.2 14.1C3.41217 14.1 3.61566 14.0157 3.76569 13.8657C3.91571 13.7157 4 13.5122 4 13.3V12.2856C4.24321 12.1452 4.44518 11.9432 4.58559 11.7C4.72601 11.4567 4.79993 11.1808 4.79993 10.9C4.79993 10.6192 4.72601 10.3433 4.58559 10.1C4.44518 9.85681 4.24321 9.65484 4 9.5144V3.7ZM8.8 3.7C8.8 3.48783 8.71572 3.28435 8.56569 3.13432C8.41566 2.98429 8.21217 2.9 8 2.9C7.78783 2.9 7.58434 2.98429 7.43432 3.13432C7.28429 3.28435 7.2 3.48783 7.2 3.7V4.7144C6.95679 4.85484 6.75483 5.05681 6.61441 5.30004C6.47399 5.54326 6.40007 5.81916 6.40007 6.1C6.40007 6.38085 6.47399 6.65674 6.61441 6.89997C6.75483 7.14319 6.95679 7.34517 7.2 7.4856V13.3C7.2 13.5122 7.28429 13.7157 7.43432 13.8657C7.58434 14.0157 7.78783 14.1 8 14.1C8.21217 14.1 8.41566 14.0157 8.56569 13.8657C8.71572 13.7157 8.8 13.5122 8.8 13.3V7.4856C9.04321 7.34517 9.24517 7.14319 9.38559 6.89997C9.52601 6.65674 9.59993 6.38085 9.59993 6.1C9.59993 5.81916 9.52601 5.54326 9.38559 5.30004C9.24517 5.05681 9.04321 4.85484 8.8 4.7144V3.7ZM12.8 2.9C13.0122 2.9 13.2157 2.98429 13.3657 3.13432C13.5157 3.28435 13.6 3.48783 13.6 3.7V9.5144C13.8432 9.65484 14.0452 9.85681 14.1856 10.1C14.326 10.3433 14.3999 10.6192 14.3999 10.9C14.3999 11.1808 14.326 11.4567 14.1856 11.7C14.0452 11.9432 13.8432 12.1452 13.6 12.2856V13.3C13.6 13.5122 13.5157 13.7157 13.3657 13.8657C13.2157 14.0157 13.0122 14.1 12.8 14.1C12.5878 14.1 12.3843 14.0157 12.2343 13.8657C12.0843 13.7157 12 13.5122 12 13.3V12.2856C11.7568 12.1452 11.5548 11.9432 11.4144 11.7C11.274 11.4567 11.2001 11.1808 11.2001 10.9C11.2001 10.6192 11.274 10.3433 11.4144 10.1C11.5548 9.85681 11.7568 9.65484 12 9.5144V3.7C12 3.48783 12.0843 3.28435 12.2343 3.13432C12.3843 2.98429 12.5878 2.9 12.8 2.9Z" fill="white"/>
</svg>

<svg xmlns="http://www.w3.org/2000/svg" width="16" height="17" fill="none"><path fill="#fff" d="M4 3.7a.8.8 0 0 0-1.6 0v5.8144A1.6002 1.6002 0 0 0 1.8144 11.7c.1404.2432.3424.4452.5856.5856V13.3a.8.8 0 1 0 1.6 0v-1.0144A1.5998 1.5998 0 0 0 4.5856 10.1 1.6002 1.6002 0 0 0 4 9.5144V3.7Zm4.8 0a.8.8 0 1 0-1.6 0v1.0144a1.6 1.6 0 0 0 0 2.7712V13.3a.8.8 0 1 0 1.6 0V7.4856a1.6 1.6 0 0 0 0-2.7712V3.7Zm4-.8a.8.8 0 0 1 .8.8v5.8144a1.6002 1.6002 0 0 1 .5856 2.1856 1.5998 1.5998 0 0 1-.5856.5856V13.3a.8.8 0 1 1-1.6 0v-1.0144a1.5998 1.5998 0 0 1 0-2.7712V3.7a.8001.8001 0 0 1 .8-.8Z"/></svg>
